X:3
T:Pretty Nancy (B2 Alternatives)
F:http://www.folkingo.org/Songs
B:The Foggy Dew, Ed Frank Purslow, EFDS, 1974
S:Sam Gregory and Mrs Tuck, Beaminster, Dorset, June 1906
Z:Hammond Dt 524/Dt 540
M:3/4
L:1/8
K:Am
"Alternative B2(i) "(AB) |c2 c2 d2 |(c3/2B/) A3 G |F2 D2 (EF) | G4
w:It_ is to in-form_  you what we un--der- go
"Alternative B2(ii) "c2 |A2 G2 F2 |c2 d2 c2 |A2 G2 (FG) |A4
w:It is to in-form you what we un-der--go
"Alternative B2(iii) "c2 |B2 G2 E2 |c2 d2 c2 |A2 G2 FG |A4
w:It is to in-form you what we un-der--go
